src/icons/outline/metrics/analytics-graph.svg

<svg width="24" height="24" viewBox="0 0 24 24" fill="none" xmlns="http://www.w3.org/2000/svg">
<g clip-path="url(#clip0_4704_732)">
<path fill-rule="evenodd" clip-rule="evenodd" d="M20.8223 1C22.0236 1 22.9893 1.96527 22.9893 3.16602C22.9891 4.36659 22.0235 5.33105 20.8223 5.33105C20.4088 5.33101 20.0222 5.21302 19.6924 5.01074L16.5908 8.8877C16.7713 9.20412 16.875 9.57077 16.875 9.96289C16.8748 11.1634 15.9101 12.1278 14.709 12.1279C13.5185 12.1279 12.5422 11.1635 12.542 9.96289C12.542 9.93683 12.544 9.91059 12.5449 9.88477L10.0977 8.79883C9.70863 9.17351 9.18079 9.4052 8.59473 9.40527C8.11094 9.40527 7.66362 9.24432 7.30176 8.97461L2.61035 11.7891V18.1621L5.08496 16.9209C5.08051 16.8642 5.07715 16.8069 5.07715 16.749C5.07724 15.5484 6.04197 14.5841 7.24316 14.584L7.46582 14.5947C8.28449 14.6772 8.96296 15.2114 9.25488 15.9453H12.0215C12.3395 15.1459 13.1167 14.584 14.0332 14.584C14.5536 14.584 15.0298 14.7645 15.4023 15.0674L18.6602 13.2598C18.7074 12.1015 19.6523 11.1846 20.8232 11.1846L21.0449 11.1963C22.141 11.3065 22.9893 12.2248 22.9893 13.3506C22.9892 14.5512 22.0244 15.5165 20.8232 15.5166C20.1844 15.5166 19.6086 15.2369 19.2109 14.7939L16.1807 16.4746C16.1919 16.5645 16.1992 16.6559 16.1992 16.749C16.1992 17.9497 15.2344 18.9149 14.0332 18.915C13.1251 18.915 12.3431 18.3529 12.0225 17.5537H9.25488C8.93676 18.3528 8.15942 18.915 7.24316 18.915C6.69331 18.915 6.19092 18.707 5.80762 18.3672L2.61035 19.9697V21.3906H22.1953C22.6352 21.3906 23.0009 21.7556 23.001 22.1953C23.001 22.6351 22.6353 23 22.1953 23H1.80566C1.36566 23 1 22.6458 1 22.1953V1.81543C1.00002 1.37566 1.36567 1.01074 1.80566 1.01074C2.24552 1.01091 2.61033 1.37576 2.61035 1.81543V9.91016L6.45996 7.60059C6.44028 7.48334 6.42776 7.36321 6.42773 7.24023C6.42773 6.03948 7.39338 5.07422 8.59473 5.07422C9.79595 5.07436 10.7607 6.03957 10.7607 7.24023C10.7607 7.27104 10.7571 7.30155 10.7559 7.33203L13.1924 8.41309C13.5825 8.03171 14.117 7.79688 14.709 7.79688C14.9279 7.7969 15.139 7.82896 15.3379 7.88867L18.7158 3.66602C18.6778 3.5055 18.6563 3.33841 18.6562 3.16602C18.6562 1.96534 19.621 1.00012 20.8223 1ZM7.24316 16.2021C6.94297 16.2023 6.68563 16.449 6.68555 16.7598C6.68555 16.823 6.69791 16.8831 6.7168 16.9395C6.72791 16.9579 6.74015 16.9764 6.75 16.9961C6.76412 17.0236 6.77557 17.0519 6.78613 17.0801C6.88635 17.2238 7.05222 17.3173 7.24316 17.3174C7.52997 17.3174 7.75949 17.1074 7.79395 16.8311C7.79119 16.8044 7.79005 16.7773 7.79004 16.75C7.79004 16.7268 7.79098 16.7034 7.79297 16.6807C7.75501 16.4083 7.52714 16.2021 7.24316 16.2021ZM14.0332 16.2021C13.7329 16.2021 13.4757 16.4489 13.4756 16.7598C13.4756 17.0707 13.7221 17.3174 14.0332 17.3174C14.3441 17.3172 14.5908 17.0706 14.5908 16.7598C14.5907 16.449 14.3441 16.2023 14.0332 16.2021ZM20.8232 12.8037C20.5229 12.8037 20.2656 13.0504 20.2656 13.3613C20.2656 13.3975 20.269 13.4327 20.2754 13.4668C20.2788 13.4778 20.2812 13.489 20.2842 13.5C20.3451 13.7422 20.5604 13.9189 20.8232 13.9189C21.1341 13.9188 21.3808 13.6721 21.3809 13.3613C21.3809 13.0505 21.1342 12.8039 20.8232 12.8037ZM14.709 9.40527C14.5239 9.40527 14.3552 9.49894 14.2529 9.64355C14.2427 9.67856 14.2312 9.71374 14.2158 9.74805C14.2007 9.78321 14.1816 9.81583 14.1621 9.84766C14.1543 9.88462 14.1514 9.92349 14.1514 9.96289C14.1516 10.2736 14.398 10.5205 14.709 10.5205C15.0198 10.5204 15.2664 10.2735 15.2666 9.96289C15.2666 9.80805 15.2053 9.66878 15.1055 9.56836C15.0879 9.55674 15.0686 9.5474 15.0518 9.53418C15.033 9.51896 15.0151 9.50283 14.998 9.48633C14.9139 9.43563 14.8157 9.40532 14.709 9.40527ZM8.59473 6.69336C8.28383 6.69336 8.03737 6.93932 8.03711 7.25C8.03711 7.32299 8.05134 7.39251 8.07617 7.45605C8.09659 7.48251 8.11648 7.51038 8.13379 7.54004C8.14743 7.56343 8.15977 7.58723 8.1709 7.61133C8.27272 7.73099 8.42298 7.80762 8.59473 7.80762C8.90566 7.80747 9.15234 7.56082 9.15234 7.25C9.15209 6.93941 8.9055 6.6935 8.59473 6.69336ZM20.8223 2.61914C20.522 2.61926 20.2646 2.86592 20.2646 3.17676C20.2649 3.48741 20.5114 3.73328 20.8223 3.7334C21.1332 3.7334 21.3797 3.48748 21.3799 3.17676C21.3799 2.86585 21.1333 2.61914 20.8223 2.61914Z" fill="#3C3B44"/>
</g>
<defs>
<clipPath id="clip0_4704_732">
<rect width="24" height="24" fill="white"/>
</clipPath>
</defs>
</svg>

<svg xmlns="http://www.w3.org/2000/svg" width="24" height="24" fill="none" viewBox="0 0 24 24"><g clip-path="url(#a)"><path fill="currentColor" fill-rule="evenodd" d="M20.822 1a2.16 2.16 0 0 1 2.167 2.166 2.16 2.16 0 0 1-3.297 1.845l-3.101 3.877c.18.316.284.683.284 1.075a2.167 2.167 0 0 1-4.333 0l.003-.078-2.447-1.086a2.16 2.16 0 0 1-2.796.176L2.61 11.789v6.373l2.475-1.241a2.16 2.16 0 0 1 2.158-2.337l.223.01a2.16 2.16 0 0 1 1.789 1.351h2.766a2.16 2.16 0 0 1 2.012-1.361c.52 0 .997.18 1.37.483l3.257-1.807a2.16 2.16 0 0 1 2.163-2.075l.222.011a2.16 2.16 0 0 1 1.944 2.155 2.163 2.163 0 0 1-3.778 1.443l-3.03 1.68q.017.135.018.275a2.16 2.16 0 0 1-2.166 2.166c-.908 0-1.69-.562-2.01-1.361H9.255a2.16 2.16 0 0 1-3.447.813L2.61 19.97v1.42h19.585c.44 0 .806.366.806.805s-.366.805-.806.805H1.805A.804.804 0 0 1 1 22.195V1.815c0-.44.366-.804.806-.804a.81.81 0 0 1 .804.804V9.91L6.46 7.6a2.16 2.16 0 0 1 2.135-2.526A2.16 2.16 0 0 1 10.76 7.24l-.005.092 2.436 1.081a2.19 2.19 0 0 1 2.146-.524l3.378-4.223A2.16 2.16 0 0 1 20.822 1M7.243 16.202a.56.56 0 0 0-.557.558q.002.094.03.18.019.027.034.056a1 1 0 0 1 .036.084c.1.144.266.237.457.237a.55.55 0 0 0 .55-.486 1 1 0 0 1 0-.15.55.55 0 0 0-.55-.479m6.79 0a.56.56 0 0 0-.557.558c0 .31.246.557.557.557s.558-.246.558-.557a.554.554 0 0 0-.558-.558m6.79-3.398a.56.56 0 0 0-.548.663l.01.033a.55.55 0 0 0 .538.419.554.554 0 0 0 .558-.558.554.554 0 0 0-.558-.557M14.71 9.405a.56.56 0 0 0-.456.239.8.8 0 0 1-.09.204.554.554 0 0 0 .547.673c.31 0 .556-.247.557-.558a.56.56 0 0 0-.162-.395q-.026-.015-.053-.034l-.054-.048a.56.56 0 0 0-.289-.08M8.595 6.693a.553.553 0 0 0-.519.763.8.8 0 0 1 .095.155.554.554 0 0 0 .981-.361.554.554 0 0 0-.557-.557M20.822 2.62a.56.56 0 0 0-.557.558c0 .31.246.556.557.556s.558-.246.558-.556a.554.554 0 0 0-.558-.558" clip-rule="evenodd"/></g><defs><clipPath id="a"><path fill="currentColor" d="M0 0h24v24H0z"/></clipPath></defs></svg>
